theme-map4trip/src/main/assets/themes/mapsforgeV3/map4trip/symbols/parking.svg

<svg enable-background="new 0 0 24 24" height="24" viewBox="0 0 24 24" width="24" xmlns="http://www.w3.org/2000/svg"><g fill="none" stroke="#fff" stroke-width="4"><path d="m7.4 4.4v15.2"/><path d="m16.9 4.4v15.2"/><path d="m7.4 12h9.5"/></g><path d="m7 21.3v-17.8h5.5c1.3 0 2.2.1 2.9.3.8.3 1.5.9 2 1.7s.8 1.9.8 3.1c0 1.6-.4 2.9-1.2 3.9s-2.2 1.5-4.2 1.5h-3.9v7.2h-1.9zm1.9-9.3h3.8c1.2 0 2.1-.3 2.6-.8.6-.5.8-1.3.8-2.4 0-.7-.1-1.3-.4-1.8s-.6-.8-1-1-1.1-.3-2.1-.3h-3.7z" fill="#356ab7" stroke="#356ab7" stroke-width="1.5"/></svg>

<?xml version="1.0" encoding="utf-8"?>
<!-- Generator: Adobe Illustrator 14.0.0, SVG Export Plug-In . SVG Version: 6.00 Build 43363)  -->
<!DOCTYPE svg PUBLIC "-//W3C//DTD SVG 1.1//EN" "http://www.w3.org/Graphics/SVG/1.1/DTD/svg11.dtd">
<svg version="1.1" id="Vrstva_1" xmlns="http://www.w3.org/2000/svg" xmlns:xlink="http://www.w3.org/1999/xlink" x="0px" y="0px"
	 width="24px" height="24px" viewBox="0 0 24 24" enable-background="new 0 0 24 24" xml:space="preserve">
<g>
	<line fill="none" stroke="#FFFFFF" stroke-width="4" x1="7.4" y1="4.4" x2="7.4" y2="19.6"/>
	<line fill="none" stroke="#FFFFFF" stroke-width="4" x1="16.9" y1="4.4" x2="16.9" y2="19.6"/>
	<line fill="none" stroke="#FFFFFF" stroke-width="4" x1="7.4" y1="12" x2="16.9" y2="12"/>
</g>
<g>
	<path fill="#356AB7" stroke="#356AB7" stroke-width="1.5" d="M7,21.3V3.5h5.5c1.3,0,2.2,0.1,2.9,0.3c0.8,0.3,1.5,0.9,2,1.7
		s0.8,1.9,0.8,3.1c0,1.6-0.4,2.9-1.2,3.9S14.8,14,12.8,14H8.9v7.2H7V21.3z M8.9,12h3.8c1.2,0,2.1-0.3,2.6-0.8
		C15.9,10.7,16.1,9.9,16.1,8.8C16.1,8.1,16,7.5,15.7,7s-0.6-0.8-1-1s-1.1-0.3-2.1-0.3H8.9V12z"/>
</g>
</svg>
